img/soc-icons/github.svg

<svg width="48" height="48" viewBox="0 0 48 48" fill="none" xmlns="http://www.w3.org/2000/svg">
<path d="M24 46C36.1503 46 46 36.1503 46 24C46 11.8497 36.1503 2 24 2C11.8497 2 2 11.8497 2 24C2 36.1503 11.8497 46 24 46Z" fill="#171515"/>
<path fill-rule="evenodd" clip-rule="evenodd" d="M23.9985 0C10.7457 0 0 10.7875 0 24.0949C0 34.7393 6.87472 43.7705 16.4141 46.9577C17.6144 47.1776 17.9925 46.4636 17.9925 45.825C17.9925 45.2526 18.0045 43.653 17.9925 41.6423C11.3173 43.0988 9.93398 38.4687 9.93398 38.4687C8.84321 35.6852 7.27082 34.9441 7.27082 34.9441C5.09227 33.45 7.43436 33.4786 7.43436 33.4786C9.84246 33.6488 11.1118 35.9623 11.1118 35.9623C13.2528 39.642 16.7277 38.5786 18.0945 37.9641C18.3136 36.4067 18.9347 35.3448 19.6204 34.7423C14.2911 34.1338 8.68867 32.0673 8.68867 22.8342C8.68867 20.2028 9.62341 18.0535 11.1583 16.3695C10.9107 15.761 10.0855 13.3104 11.3938 9.99221C11.3938 9.99221 13.4089 9.34454 17.9925 12.4639C19.907 11.9292 21.961 11.6626 24.0015 11.6536C26.0405 11.6626 28.093 11.9292 30.0105 12.4639C34.5941 9.34605 36.6062 9.99221 36.6062 9.99221C37.9145 13.3104 37.0908 15.761 36.8447 16.3695C38.3796 18.0535 39.3113 20.2028 39.3113 22.8342C39.3113 32.0914 33.6999 34.1278 28.3526 34.7227C29.2138 35.4683 29.9955 36.9142 29.9955 39.1615C29.9955 42.1739 29.9955 45.0388 29.9955 45.831C29.9955 46.4757 30.3826 47.1881 31.6009 46.9547C41.1313 43.763 48 34.7363 48 24.0949C48 10.7875 37.2543 0 23.9985 0Z" fill="white"/>
</svg>

<svg width="48" height="48" fill="none" xmlns="http://www.w3.org/2000/svg">
    <path d="M24 46c12.15 0 22-9.85 22-22S36.15 2 24 2 2 11.85 2 24s9.85 22 22 22Z" fill="#171515"/>
    <path fill-rule="evenodd" clip-rule="evenodd" d="M23.998 0C10.746 0 0 10.787 0 24.095a24.09 24.09 0 0 0 16.414 22.863c1.2.22 1.578-.494 1.578-1.133 0-.572.012-2.172 0-4.183-6.675 1.457-8.058-3.173-8.058-3.173-1.09-2.784-2.663-3.525-2.663-3.525-2.179-1.494.163-1.465.163-1.465 2.408.17 3.678 2.483 3.678 2.483 2.14 3.68 5.616 2.617 6.982 2.002.22-1.557.84-2.62 1.526-3.222-5.329-.608-10.931-2.675-10.931-11.908 0-2.631.934-4.78 2.47-6.465-.248-.608-1.074-3.059.235-6.377 0 0 2.015-.647 6.598 2.472 1.915-.535 3.969-.801 6.01-.81 2.039.009 4.091.275 6.009.81 4.583-3.118 6.595-2.472 6.595-2.472 1.308 3.318.485 5.769.239 6.377 1.535 1.684 2.466 3.834 2.466 6.465 0 9.257-5.611 11.294-10.958 11.889.86.745 1.642 2.191 1.642 4.438v6.67c0 .645.388 1.357 1.606 1.124A24.092 24.092 0 0 0 48 24.095C48 10.788 37.254 0 23.998 0Z" fill="#fff"/>
</svg>
